src/lib/packages/icons/src/assets/filled/magnet.svg

<svg width="24" height="24" viewBox="0 0 24 24" fill="none" xmlns="http://www.w3.org/2000/svg">
<path d="M3 6.95001V4C3 3.45 3.45 3 4 3H8C8.55 3 9 3.45 9 4V6.95001C9 7.11601 8.86595 7.25 8.69995 7.25H3.30005C3.13405 7.25 3 7.11601 3 6.95001ZM20 3H16C15.45 3 15 3.45 15 4V6.95001C15 7.11601 15.134 7.25 15.3 7.25H20.7C20.866 7.25 21 7.11601 21 6.95001V4C21 3.45 20.55 3 20 3ZM20.7 8.75H15.3C15.134 8.75 15 8.88399 15 9.04999V12C15 13.712 13.575 15.083 11.844 14.996C10.221 14.914 9 13.461 9 11.835V9.04999C9 8.88399 8.86595 8.75 8.69995 8.75H3.30005C3.13405 8.75 3 8.88399 3 9.04999V12C3.46 23.93 20.54 23.93 21 12V9.04999C21 8.88399 20.866 8.75 20.7 8.75Z" fill="currentColor"/>
</svg>

<svg xmlns="http://www.w3.org/2000/svg" width="24" height="24" fill="none"><path fill="currentColor" d="M3 6.95V4c0-.55.45-1 1-1h4c.55 0 1 .45 1 1v2.95a.3.3 0 0 1-.3.3H3.3a.3.3 0 0 1-.3-.3ZM20 3h-4c-.55 0-1 .45-1 1v2.95a.3.3 0 0 0 .3.3h5.4a.3.3 0 0 0 .3-.3V4c0-.55-.45-1-1-1Zm.7 5.75h-5.4a.3.3 0 0 0-.3.3V12a2.996 2.996 0 0 1-3.156 2.996C10.221 14.914 9 13.461 9 11.835V9.05a.3.3 0 0 0-.3-.3H3.3a.3.3 0 0 0-.3.3V12c.46 11.93 17.54 11.93 18 0V9.05a.3.3 0 0 0-.3-.3Z"/></svg>
